X: 070678
T: Galway (The)
S: "Where's the Crack v/1" (DJ Taylor)
Z: B.Black
L: 1/8
M: 4/4
R: hornpipe
K: G
Bc|(3d^cd gd BGAB|(3cBc ec AGFA|DG (3BAG FG (3AGF|\
GB (3def gdBc|
de (3d^cd BGAB|(3cec AG FG (3AGF|GBdg fdcA|BGAF G2 :|
(3def|gfef gdBd|(3ege ce dGBd|edce dGBd|\
(3gba (3gfe d2 (3def|
gfed cBAG|FGAB cdef|ga (3gfe dcBA|BGGF G2 :|
Bc|dBGB AFDC|B,CDE FGAB|(3cBA dB cBAG|\
(3FED AB cAdc|
BG (3AGF GDEC|B,CDE FG (3ABc|(3d^cd (3efg fd=cA|\
BGGF G2 :|
(3def|gfef gdBd|(3ege ce dGBd|edce dGBd|\
(3gba (3gfe d2 (3def|
(3gab (3agf gdBd| (3cde (3dcB cABc|(3d^cd (3efg fd=cA|\
BGGF G2 :|
